X:132
T:Shepherd's Hey (in D, G and C)
Z:Jack Campin, http://www.campin.me.uk/
F:Jack Campin's Nine-Note Tunebook
% last edit 03-02-2013
M:4/4
L:1/8
Q:1/4=120
K:D
F2A2 G4 |FGAF E4|FGAF GGFG|A2E2 D4:|
F2D2 G3E|F2D2 E4|FGAF GFGE|A2E2 D4:|
K:G
B2d2 c4 |BcdB A4|BcdB ccBc|d2A2 G4:|
B2G2 c3A|B2G2 A4|BcdB cBcA|d2A2 G4:|
K:C
E2G2 F4 |EFGE D4|EFGE FFEF|G2D2 C4:|
E2C2 F3D|E2C2 D4|EFGE FEFD|G2D2 C4:|

